findly-builder/apps/searchassist/src/assets/icons/content/latest-content-icons/blue-internet.svg

<svg width="17" height="17" viewBox="0 0 17 17" fill="none" xmlns="http://www.w3.org/2000/svg">
<path d="M8 0.6875C4.96387 0.6875 2.3547 2.54733 1.25055 5.1875H1.25V5.1897C0.888278 6.05537 0.6875 7.00465 0.6875 8C0.6875 8.99535 0.888278 9.94463 1.25 10.8103V10.8125H1.25055C2.3547 13.4527 4.96387 15.3125 8 15.3125C9.23862 15.3125 10.4059 15.002 11.4294 14.4561L11.4865 13.1081C11.1234 13.3567 10.732 13.5666 10.3192 13.7343C11.1444 12.4165 11.6562 10.3761 11.6562 8C11.6562 7.41439 11.6225 6.85179 11.5634 6.3125H13.9518C14.1043 6.84932 14.1875 7.41499 14.1875 8C14.1875 8.63956 14.0898 9.25668 13.909 9.83746L14.8236 10.6241C15.138 9.80902 15.3125 8.92475 15.3125 8C15.3125 7.00465 15.1117 6.05537 14.75 5.1897V5.1875H14.7495C13.6453 2.54733 11.0361 0.6875 8 0.6875ZM8 1.8125C8.85581 1.8125 9.77898 3.11523 10.2374 5.1875H5.76263C6.22102 3.11523 7.14419 1.8125 8 1.8125ZM5.68079 2.26514C5.20557 3.02392 4.83551 4.02256 4.60632 5.1875H2.49091C3.16628 3.87002 4.30007 2.82555 5.68079 2.26514ZM10.3192 2.26514C11.6999 2.82555 12.8337 3.87002 13.5091 5.1875H11.3937C11.1645 4.02256 10.7944 3.02392 10.3192 2.26514ZM2.04816 6.3125H4.43658C4.37748 6.85179 4.34375 7.41439 4.34375 8C4.34375 8.58561 4.37748 9.14822 4.43658 9.6875H2.04816C1.89573 9.15068 1.8125 8.58501 1.8125 8C1.8125 7.41499 1.89573 6.84932 2.04816 6.3125ZM5.57202 6.3125H10.428C10.4927 6.84265 10.5312 7.40468 10.5312 8C10.5312 8.59532 10.4927 9.15735 10.428 9.6875H5.57202C5.50731 9.15735 5.46875 8.59532 5.46875 8C5.46875 7.40468 5.50731 6.84265 5.57202 6.3125ZM12.2188 9.125L12.2204 15.691L13.8782 13.9282L15.0071 16.9945L16.0398 16.5479L14.5803 13.625H17L12.2188 9.125ZM2.49091 10.8125H4.60632C4.83551 11.9774 5.20557 12.9761 5.68079 13.7349C4.30007 13.1744 3.16628 12.13 2.49091 10.8125ZM5.76263 10.8125H10.2374C9.77898 12.8848 8.85581 14.1875 8 14.1875C7.14419 14.1875 6.22102 12.8848 5.76263 10.8125Z" fill="#85B7FE"/>
</svg>

<svg width="17" height="17" fill="none" xmlns="http://www.w3.org/2000/svg"><path d="M8 .688a7.323 7.323 0 0 0-6.75 4.5v.002A7.273 7.273 0 0 0 .687 8c0 .995.201 1.945.563 2.81v.002a7.323 7.323 0 0 0 6.75 4.5c1.239 0 2.406-.31 3.43-.856l.056-1.348a6.189 6.189 0 0 1-1.167.626c.825-1.318 1.337-3.358 1.337-5.734 0-.586-.034-1.148-.093-1.688h2.389a6.165 6.165 0 0 1-.043 3.525l.915.787a7.286 7.286 0 0 0-.074-5.434v-.003A7.323 7.323 0 0 0 8 .688Zm0 1.125c.856 0 1.779 1.302 2.237 3.375H5.763C6.22 3.115 7.144 1.813 8 1.813Zm-2.32.452c-.474.759-.844 1.758-1.074 2.922H2.491a6.223 6.223 0 0 1 3.19-2.922Zm4.64 0a6.224 6.224 0 0 1 3.19 2.922h-2.116c-.23-1.164-.6-2.163-1.075-2.922ZM2.047 6.312h2.389a15.473 15.473 0 0 0 0 3.375H2.048a6.168 6.168 0 0 1 0-3.374Zm3.524 0h4.856a13.9 13.9 0 0 1 0 3.375H5.572a13.898 13.898 0 0 1 0-3.374Zm6.647 2.813.001 6.566 1.658-1.763 1.13 3.066 1.032-.446-1.46-2.923H17l-4.781-4.5ZM2.49 10.813h2.115c.23 1.164.6 2.163 1.075 2.922a6.224 6.224 0 0 1-3.19-2.922Zm3.272 0h4.474C9.78 12.884 8.856 14.187 8 14.187c-.856 0-1.779-1.302-2.237-3.374Z" fill="#85B7FE"/></svg>
